X: 16
T: Chadham (sic) County Breakdown
M:2/4
L:1/8
S: Viola "Mom" Ruth - Pioneer Western Folk Tunes (1948)
Z:AK/Fiddler's Companion
K:C
e>g g/a/g/e/|(g2g2)|e/eg/ e/d/c/B/|[F4A4]|G/A/B/G/ A/B/G/A/|
B/G/A/B/ A<B|c/B/c/G/ A/G/E/G/|[E4c4]:|
|:C/B,/C/D/ E/G/A/B/|[E4c4]|ee/f/ e/d/c/B/|[F4A4]|
G/A/B/G/ A/B/G/A/|B/G/A/B/ A<B|c/B/c/G/ A/G/E/G/|[E4c4]:|

%%sep 1 1 500
